X:1
T:Could I Tell It
T:Could I Tell It
T:Peter Philip Bilhorn
T:Ina Mae Duley Ogdon, 1901
T:Public Domain Courtesy of the Cyber Hymnal™
T:Public Domain Courtesy of the Cyber Hymnal™
C:Peter Philip Bilhorn
Z:Public Domain
Z:Courtesy of the Cyber Hymnal™
%%score ( 1 2 ) ( 3 4 )
L:1/8
Q:1/4=95
M:4/4
K:A
V:1 treble 
V:2 treble 
V:3 bass 
V:4 bass 
V:1
 z [CE] | [CE]>[CA] [CA]>[DB] [Ec]>[CA] [Fd]>[DB] | [Ec]4 [CA]2 [CA]>[EG] | %3
w: 1.~If|I could tell of Je- sus as I|know Him, My Re-|
w: 2.~If|I could on- ly tell you how He|loves you, And if|
w: 3.~If|I could tell how sweet will be His|wel- come In that|
w: 4.~But|I can ne- ver tell Him as I|know Him, Hu- man|
 [DF]>[DF] [DF]>[DF] [^DB]>[DB] [DB]>[Dc] | [EB]6 z [DE] | %5
w: deem- er who has bright- ened all my|way, If|
w: we could thro’ the lone- ly gar- den|go; If|
w: home whose won- drous beau- ty ne’er was|told, And|
w: tongue can ne- ver tell of love di-|vine; I|
 [CE]>[CA] [CA]>[DB] [Ec]>[CA] [Fd]>[DB] | [Ec]4 [CA]2 [EA]>[DF] | %7
w: I could tell how pre- cious is His|pre- sence I am|
w: I could tell His dy- ing pain and|par- don, You would|
w: tell you how He waits and longs to|save you, You would|
w: on- ly can en- treat you to ac-|cept Him; Come and|
 [CE]>[Ec] [Ec]>[Ec] [DB]>[DF] [DG]>[DB] | [CA]6 ||"^Refrain" [CA]>[CA] | G4 [Ed]2 [Ed]>[DG] | %11
w: sure that you would make Him yours to-|day.|||
w: wor- ship at His wound- ed feet, I|know.|Could I|tell it, could I|
w: seek Him, and a- bide with- in His|fold.|||
w: know the joy and peace for- ev- er|mine.|||
 A4 [Ec]2 [Ec]>[Ec] | [^DB]>[DF] [DF]>[DF] [DG]>[DA] [DB]>[Dc] | [EB]6 [Ec]>[Ed] | %14
w: |||
w: tell it, How the|sun- shine of His pre- sence lights my|way, I would|
w: |||
w: |||
 e4 [CA]2 [CA]>[EG] | F4 !fermata![Fd]2 [EG]>[DF] | [CE]>[Ec] [Ec]>[Ec] [DB]>[DF] [DG]>[DB] | %17
w: |||
w: tell it, I would|tell it, And I’m|sure that you would make Him yours to-|
w: |||
w: |||
 [CA]6 |] %18
w: |
w: day.|
w: |
w: |
V:2
 x2 | x8 | x8 | x8 | x8 | x8 | x8 | x8 | x6 || x2 | (D>DD>D) x4 | (C>CC>C) x4 | x8 | x8 | %14
 (E>EE>E) x4 | (D>DD>D) x4 | x8 | x6 |] %18
V:3
 z [A,,A,] | [A,,A,]>[A,,E,] [A,,E,]>[A,,A,] [A,,A,]>[A,,A,] [A,,A,]>[A,,A,] | %2
w: ~|~ ~ ~ ~ ~ ~ ~ ~|
 [A,,A,]4 [A,,E,]2 [A,,A,]>[C,A,] | [D,A,]>[D,A,] [D,A,]>[D,A,] [B,,A,]>[B,,F,] [B,,F,]>[B,,A,] | %4
w: ~ ~ ~ ~|~ ~ ~ ~ ~ ~ ~ ~|
 [E,G,]6 z [E,G,] | [A,,A,]>[A,,E,] [A,,E,]>[A,,A,] [A,,A,]>[A,,A,] [A,,A,]>[A,,A,] | %6
w: ~ ~|~ ~ ~ ~ ~ ~ ~ ~|
 [A,,A,]4 [A,,E,]2 [C,A,]>[D,A,] | [E,A,]>[E,A,] [E,A,]>[E,A,] [E,G,]>[E,G,] [E,B,]>E, | %8
w: ~ ~ ~ ~|~ ~ ~ ~ ~ ~ ~ ~|
 [A,,E,]6 || [A,,E,]>[A,,E,] | [B,,E,]>[B,,E,] [B,,E,]>[B,,E,] [E,G,]2 [E,G,]>[E,B,] | %11
w: ~|Could I|tell it, yes, I would, Could I|
 [A,,A,]>[A,,E,] [A,,E,]>[A,,E,] [A,,A,]2 [A,,A,]>[A,,A,] | %12
w: tell it as I should ~ ~|
 [B,,F,]>[B,,B,] [B,,B,]>[B,,B,] [B,,B,]>[B,,B,] [B,,F,]>[B,,A,] | [E,G,]6 A,>[A,B,] | %14
w: ~ ~ ~ ~ ~ ~ ~ ~|~ I would|
 [A,C]>[A,C] [A,C]>[A,C] A,2 [A,,A,]>[C,A,] | [D,A,]>[D,A,] [D,A,]>[D,A,] [B,,B,]2 [C,A,]>[D,A,] | %16
w: tell you, yes, I would, I would|tell you if I could. * *|
 [E,A,]>[E,A,] [E,A,]>[E,A,] [E,G,]>[E,G,] [E,B,]>E, | [A,,E,]6 |] %18
w: ||
V:4
 x2 | x8 | x8 | x8 | x8 | x8 | x8 | x15/2 E,/ | x6 || x2 | x8 | x8 | x8 | x6 A,3/2 x/ | x4 A,2 x2 | %15
 x8 | x15/2 E,/ | x6 |] %18

